**harm	**kern	**kern	**kern	**kern	**harm	**harm	**harm
I	4A#	8r	8r	2.ee#	.	A#	M4/4
I	4A#	8e#	8cc##	2.ee#	.	A#	M4/4
I	4c##	8r	8r	2.ee#	.	A#	M4/4
I	4c##	8e#	8ee#	2.ee#	.	A#	M4/4
V7c	4B#	8r	8r	2.ee#	.	A#	M4/4
V7c	4B#	8g##	8dd#	2.ee#	.	A#	M4/4
V7	4E#	8r	8r	4gg##	.	A#	M4/4
V7	4E#	8dd#	8b#	4gg##	.	A#	M4/4
=2	=2	=2	=2	=2	=2	=2	=2
I	4A#	8r	8r	8aa#	=2	A#	M4/4
I	4A#	8cc##	8cc##	8ee#	=2	A#	M4/4
I	4c##	8r	8r	2ee#	=2	A#	M4/4
I	4c##	8e#	8ee#	2ee#	=2	A#	M4/4
V7c	4B#	8r	8r	2ee#	=2	A#	M4/4
V7c	4B#	8g##	8dd#	2ee#	=2	A#	M4/4
V7	4E#	8r	8r	4gg##	=2	A#	M4/4
V7	4E#	8dd#	8b#	4gg##	=2	A#	M4/4
=3	=3	=3	=3	=3	=3	=3	=3
I	4A#	4cc##	4e#	16aa#	=3	A#	M4/4
I	4A#	4cc##	4e#	16gg##	=3	A#	M4/4
I	4A#	4cc##	4e#	16bb#	=3	A#	M4/4
I	4A#	4cc##	4e#	16aa#	=3	A#	M4/4
I	2.r	2.r	2.r	16ccc##	=3	A#	M4/4
I	2.r	2.r	2.r	16bb#	=3	A#	M4/4
I	2.r	2.r	2.r	16aa#	=3	A#	M4/4
I	2.r	2.r	2.r	16gg##	=3	A#	M4/4
I	2.r	2.r	2.r	16ff##	=3	A#	M4/4
I	2.r	2.r	2.r	16ee#	=3	A#	M4/4
I	2.r	2.r	2.r	16dd#	=3	A#	M4/4
I	2.r	2.r	2.r	16cc##	=3	A#	M4/4
I	2.r	2.r	2.r	16b#	=3	A#	M4/4
I	2.r	2.r	2.r	16a#	=3	A#	M4/4
I	2.r	2.r	2.r	16g##	=3	A#	M4/4
I	2.r	2.r	2.r	16a#	=3	A#	M4/4
=4	=4	=4	=4	=4	=4	=4	=4
IV	4D#	4a#	4dd#	4ff##	=4	A#	M4/4
I	4A#	4a#	4cc##	4ee#	=4	A#	M4/4
I	2r	2r	2r	2r	=4	A#	M4/4
=5	=5	=5	=5	=5	=5	=5	=5
ii	4B#	8r	8r	[3..dd#	=5	A#	M4/4
ii	4B#	8f##	8dd#	[3..dd#	=5	A#	M4/4
IVc	4A#	8r	8r	[3..dd#	=5	A#	M4/4
IVc	4A#	8f##	8dd#	[3..dd#	=5	A#	M4/4
V7b	4G##	8r	8r	[3..dd#	=5	A#	M4/4
V7b	4G##	8r	8r	24dd#]	=5	A#	M4/4
V7b	4G##	8e#	8dd#	8dd#	=5	A#	M4/4
V7	4E#	8r	8r	8ff##	=5	A#	M4/4
V7	4E#	8e#	8dd#	8dd#	=5	A#	M4/4
=6	=6	=6	=6	=6	=6	=6	=6
I	4A#	8r	8r	[3..cc##	=6	A#	M4/4
I	4A#	8e#	8cc##	[3..cc##	=6	A#	M4/4
iiic	4G##	8r	8r	[3..cc##	=6	A#	M4/4
iiic	4G##	8e#	8cc##	[3..cc##	=6	A#	M4/4
vi	4F##	8r	8r	[3..cc##	=6	A#	M4/4
vi	4F##	8r	8r	24cc##]	=6	A#	M4/4
vi	4F##	8a#	8cc##	8cc##	=6	A#	M4/4
Ib	4C##	8r	8r	8aa#	=6	A#	M4/4
Ib	4C##	8e#	8a#	8cc##	=6	A#	M4/4
=7	=7	=7	=7	=7	=7	=7	=7
iib	4D#	8r	8r	4.b#	=7	A#	M4/4
iib	4D#	8d#	8f##	4.b#	=7	A#	M4/4
iib	4D#	8r	8r	4.b#	=7	A#	M4/4
iib	4D#	8d#	8f##	16cc##	=7	A#	M4/4
iib	4D#	8d#	8f##	16dd#	=7	A#	M4/4
iib	4D#	8r	8r	4f##	=7	A#	M4/4
iib	4D#	8d#	8f##	4f##	=7	A#	M4/4
V7	4E#	8r	8r	4g##	=7	A#	M4/4
V7	4E#	8B#	8d#	4g##	=7	A#	M4/4
=8	=8	=8	=8	=8	=8	=8	=8
I	4A#	8r	8r	4a#	=8	A#	M4/4
I	4A#	8A#	8c##	4a#	=8	A#	M4/4
IV	4D#	8r	8r	2.r	=8	A#	M4/4
IV	4D#	8f##	8a#	2.r	=8	A#	M4/4
Vb	4C##	8r	8r	2.r	=8	A#	M4/4
Vb	4C##	8e#	8a#	2.r	=8	A#	M4/4
viiob	4BB#	8r	8r	2.r	=8	A#	M4/4
viiob	4BB#	8d#	8g##	2.r	=8	A#	M4/4
=9	=9	=9	=9	=9	=9	=9	=9
I	4AA#	4c##	16r	2.ee#	=9	A#	M4/4
I	4AA#	4c##	16a#	2.ee#	=9	A#	M4/4
I	4AA#	4c##	16cc##	2.ee#	=9	A#	M4/4
I	4AA#	4c##	16a#	2.ee#	=9	A#	M4/4
Ib	4c##	4a#	16r	2.ee#	=9	A#	M4/4
Ib	4c##	4a#	16e#	2.ee#	=9	A#	M4/4
Ib	4c##	4a#	16ee#	2.ee#	=9	A#	M4/4
Ib	4c##	4a#	16cc##	2.ee#	=9	A#	M4/4
V7c	4B#	4g##	16r	2.ee#	=9	A#	M4/4
V7c	4B#	4g##	16e#	2.ee#	=9	A#	M4/4
V7c	4B#	4g##	16dd#	2.ee#	=9	A#	M4/4
V7c	4B#	4g##	16b#	2.ee#	=9	A#	M4/4
V7	4E#	4dd#	16r	4gg##	=9	A#	M4/4
V7	4E#	4dd#	16b#	4gg##	=9	A#	M4/4
V7	4E#	4dd#	16dd#	4gg##	=9	A#	M4/4
V7	4E#	4dd#	16b#	4gg##	=9	A#	M4/4
=10	=10	=10	=10	=10	=10	=10	=10
I	4AA#	4cc##	16r	8aa#	=10	A#	M4/4
I	4AA#	4cc##	16e#	8aa#	=10	A#	M4/4
I	4AA#	4cc##	16cc##	8ee#	=10	A#	M4/4
I	4AA#	4cc##	16a#	8ee#	=10	A#	M4/4
Ib	4c##	4a#	16r	2ee#	=10	A#	M4/4
Ib	4c##	4a#	16e#	2ee#	=10	A#	M4/4
Ib	4c##	4a#	16ee#	2ee#	=10	A#	M4/4
Ib	4c##	4a#	16cc##	2ee#	=10	A#	M4/4
V7c	4B#	4g##	16r	2ee#	=10	A#	M4/4
V7c	4B#	4g##	16e#	2ee#	=10	A#	M4/4
V7c	4B#	4g##	16dd#	2ee#	=10	A#	M4/4
V7c	4B#	4g##	16b#	2ee#	=10	A#	M4/4
V7	4E#	4dd#	16r	4gg##	=10	A#	M4/4
V7	4E#	4dd#	16b#	4gg##	=10	A#	M4/4
V7	4E#	4dd#	16dd#	4gg##	=10	A#	M4/4
V7	4E#	4dd#	16b#	4gg##	=10	A#	M4/4
=11	=11	=11	=11	=11	=11	=11	=11
I	4A#	2cc##	16r	2aa#	=11	A#	M4/4
I	4A#	2cc##	16e#	2aa#	=11	A#	M4/4
I	4A#	2cc##	16cc##	2aa#	=11	A#	M4/4
I	4A#	2cc##	16a#	2aa#	=11	A#	M4/4
I	4A#	2cc##	16r	2aa#	=11	A#	M4/4
I	4A#	2cc##	16e#	2aa#	=11	A#	M4/4
I	4A#	2cc##	16cc##	2aa#	=11	A#	M4/4
I	4A#	2cc##	16a#	2aa#	=11	A#	M4/4
V7/IV	4A#	2ee#	16r	2gg##	=11	A#	M4/4
V7/IV	4A#	2ee#	16e#	2gg##	=11	A#	M4/4
V7/IV	4A#	2ee#	16cc##	2gg##	=11	A#	M4/4
V7/IV	4A#	2ee#	16a#	2gg##	=11	A#	M4/4
V7/IV	4A#	2ee#	16r	2gg##	=11	A#	M4/4
V7/IV	4A#	2ee#	16e#	2gg##	=11	A#	M4/4
V7/IV	4A#	2ee#	16cc##	2gg##	=11	A#	M4/4
V7/IV	4A#	2ee#	16a#	2gg##	=11	A#	M4/4
=12	=12	=12	=12	=12	=12	=12	=12
IVc	4A#	2dd#	16r	2ff##	=12	A#	M4/4
IVc	4A#	2dd#	16f##	2ff##	=12	A#	M4/4
IVc	4A#	2dd#	16dd#	2ff##	=12	A#	M4/4
IVc	4A#	2dd#	16a#	2ff##	=12	A#	M4/4
IVc	4A#	2dd#	16r	2ff##	=12	A#	M4/4
IVc	4A#	2dd#	16f##	2ff##	=12	A#	M4/4
IVc	4A#	2dd#	16dd#	2ff##	=12	A#	M4/4
IVc	4A#	2dd#	16a#	2ff##	=12	A#	M4/4
viio	4A#	2b#	16r	4.dd#	=12	A#	M4/4
viio	4A#	2b#	16g##	4.dd#	=12	A#	M4/4
viio	4A#	2b#	16dd#	4.dd#	=12	A#	M4/4
viio	4A#	2b#	16b#	4.dd#	=12	A#	M4/4
viio	4A#	2b#	16r	4.dd#	=12	A#	M4/4
viio	4A#	2b#	16g##	4.dd#	=12	A#	M4/4
viio	4A#	2b#	16dd#	16cc##	=12	A#	M4/4
viio	4A#	2b#	16b#	16dd#	=12	A#	M4/4
=13	=13	=13	=13	=13	=13	=13	=13
I	4A#	4cc##	4a#	8cc##	=13	A#	M4/4
I	4A#	4cc##	4a#	16dd#	=13	A#	M4/4
I	4A#	4cc##	4a#	16ee#	=13	A#	M4/4
I	2.r	2.r	2.r	16ff##	=13	A#	M4/4
I	2.r	2.r	2.r	16gg##	=13	A#	M4/4
I	2.r	2.r	2.r	16aa#	=13	A#	M4/4
I	2.r	2.r	2.r	16gg##	=13	A#	M4/4
I	2.r	2.r	2.r	16bb#	=13	A#	M4/4
I	2.r	2.r	2.r	16aa#	=13	A#	M4/4
I	2.r	2.r	2.r	16ccc##	=13	A#	M4/4
I	2.r	2.r	2.r	16bb#	=13	A#	M4/4
I	2.r	2.r	2.r	16aa#	=13	A#	M4/4
I	2.r	2.r	2.r	16cc##	=13	A#	M4/4
I	2.r	2.r	2.r	16dd#	=13	A#	M4/4
I	2.r	2.r	2.r	16dd##	=13	A#	M4/4
=14	=14	=14	=14	=14	=14	=14	=14
Ic	2E#	4a#	4cc##	8.ee#	=14	A#	M4/4
Ic	2E#	4a#	4cc##	32dd#	=14	A#	M4/4
Ic	2E#	4a#	4cc##	32cc##	=14	A#	M4/4
V	2E#	4g##	4b#	8b#	=14	A#	M4/4
V	2E#	4g##	4b#	3..r	=14	A#	M4/4
V	4E#	2r	16r	3..r	=14	A#	M4/4
V	4E#	2r	16g##	3..r	=14	A#	M4/4
V	4E#	2r	16b#	3..r	=14	A#	M4/4
V	4E#	2r	16e#	3..r	=14	A#	M4/4
viiob/V	4F##	2r	16r	3..r	=14	A#	M4/4
viiob/V	4F##	2r	16a#	3..r	=14	A#	M4/4
viiob/V	4F##	2r	16f##	3..r	=14	A#	M4/4
viiob/V	4F##	2r	16d##	3..r	=14	A#	M4/4
viiob/V	4F##	2r	16d##	24r	=14	A#	M4/4
=15	=15	=15	=15	=15	=15	=15	=15
Vb	4G##	2.e#	16e#	2.bb#	=15	A#	M4/4
Vb	4G##	2.e#	16e#	2.bb#	=15	A#	M4/4
Vb	4G##	2.e#	16b#	2.bb#	=15	A#	M4/4
Vb	4G##	2.e#	16g##	2.bb#	=15	A#	M4/4
Vb	4GG##	2.e#	16b#	2.bb#	=15	A#	M4/4
Vb	4GG##	2.e#	16g##	2.bb#	=15	A#	M4/4
Vb	4GG##	2.e#	16a#	2.bb#	=15	A#	M4/4
Vb	4GG##	2.e#	16f##	2.bb#	=15	A#	M4/4
Vb	4r	2.e#	16g##	2.bb#	=15	A#	M4/4
Vb	4r	2.e#	16e#	2.bb#	=15	A#	M4/4
Vb	4r	2.e#	16f##	2.bb#	=15	A#	M4/4
Vb	4r	2.e#	16d##	2.bb#	=15	A#	M4/4
V+7b	4G##	[4e#	16e#	4bb##	=15	A#	M4/4
V+7b	4G##	[4e#	16f##	4bb##	=15	A#	M4/4
V+7b	4G##	[4e#	16e#	4bb##	=15	A#	M4/4
V+7b	4G##	[4e#	16d#	4bb##	=15	A#	M4/4
=16	=16	=16	=16	=16	=16	=16	=16
I	4A#	4e#]	16c##	2.ccc##	=16	A#	M4/4
I	4A#	4e#]	16a#	2.ccc##	=16	A#	M4/4
I	4A#	4e#]	16cc##	2.ccc##	=16	A#	M4/4
I	4A#	4e#]	16a#	2.ccc##	=16	A#	M4/4
I+	4AA#	4e##	16cc##	2.ccc##	=16	A#	M4/4
I+	4AA#	4e##	16a#	2.ccc##	=16	A#	M4/4
I+	4AA#	4e##	16b#	2.ccc##	=16	A#	M4/4
I+	4AA#	4e##	16g##	2.ccc##	=16	A#	M4/4
vi	4r	4f##	16a#	2.ccc##	=16	A#	M4/4
vi	4r	4f##	16f##	2.ccc##	=16	A#	M4/4
vi	4r	4f##	16g##	2.ccc##	=16	A#	M4/4
vi	4r	4f##	16e##	2.ccc##	=16	A#	M4/4
V7b/ii	4A#	4cc##	16f##	4ee#	=16	A#	M4/4
V7b/ii	4A#	4cc##	16f##	4ee#	=16	A#	M4/4
V7b/ii	4A#	4cc##	16cc##	4ee#	=16	A#	M4/4
V7b/ii	4A#	4cc##	16a#	4ee#	=16	A#	M4/4
=17	=17	=17	=17	=17	=17	=17	=17
V/V	4B#	4b#	16r	4dd##	=17	A#	M4/4
V/V	4B#	4b#	16f##	4dd##	=17	A#	M4/4
V/V	4B#	4b#	16dd##	4dd##	=17	A#	M4/4
V/V	4B#	4b#	16b#	4dd##	=17	A#	M4/4
V/V	4B#	4dd##	16r	4bb#	=17	A#	M4/4
V/V	4B#	4dd##	16f##	4bb#	=17	A#	M4/4
V/V	4B#	4dd##	16dd##	4bb#	=17	A#	M4/4
V/V	4B#	4dd##	16b#	4bb#	=17	A#	M4/4
viioD7/ii	4B#	4ee#	16r	4aa##	=17	A#	M4/4
viioD7/ii	4B#	4ee#	16g#	4aa##	=17	A#	M4/4
viioD7/ii	4B#	4ee#	16ee#	4aa##	=17	A#	M4/4
viioD7/ii	4B#	4ee#	16cc##	4aa##	=17	A#	M4/4
viio/IV	4B#	4g#	16r	4ee#	=17	A#	M4/4
viio/IV	4B#	4g#	16g#	4ee#	=17	A#	M4/4
viio/IV	4B#	4g#	16ee#	4ee#	=17	A#	M4/4
viio/IV	4B#	4g#	16cc##	4ee#	=17	A#	M4/4
=18	=18	=18	=18	=18	=18	=18	=18
V/V	4B#	4f##	16r	4dd##	=18	A#	M4/4
V/V	4B#	4f##	16f##	4dd##	=18	A#	M4/4
V/V	4B#	4f##	16dd##	4dd##	=18	A#	M4/4
V/V	4B#	4f##	16b#	4dd##	=18	A#	M4/4
V/V	4B#	4dd##	16r	4bb#	=18	A#	M4/4
V/V	4B#	4dd##	16f##	4bb#	=18	A#	M4/4
V/V	4B#	4dd##	16dd##	4bb#	=18	A#	M4/4
V/V	4B#	4dd##	16b#	4bb#	=18	A#	M4/4
viioD7/ii	4B#	4ee#	16r	4aa##	=18	A#	M4/4
viioD7/ii	4B#	4ee#	16g#	4aa##	=18	A#	M4/4
viioD7/ii	4B#	4ee#	16ee#	4aa##	=18	A#	M4/4
viioD7/ii	4B#	4ee#	16cc##	4aa##	=18	A#	M4/4
viio/IV	4B#	4g#	16r	4ee#	=18	A#	M4/4
viio/IV	4B#	4g#	16g#	4ee#	=18	A#	M4/4
viio/IV	4B#	4g#	16ee#	4ee#	=18	A#	M4/4
viio/IV	4B#	4g#	16cc##	4ee#	=18	A#	M4/4
=19	=19	=19	=19	=19	=19	=19	=19
V/V	4B#	4f##	16r	4dd##	=19	A#	M4/4
V/V	4B#	4f##	16f##	4dd##	=19	A#	M4/4
V/V	4B#	4f##	16dd##	4dd##	=19	A#	M4/4
V/V	4B#	4f##	16b#	4dd##	=19	A#	M4/4
V/V	4B#	4dd##	16r	4ff##	=19	A#	M4/4
V/V	4B#	4dd##	16f##	4ff##	=19	A#	M4/4
V/V	4B#	4dd##	16dd##	4ff##	=19	A#	M4/4
V/V	4B#	4dd##	16b#	4ff##	=19	A#	M4/4
V7/V	4B#	4dd##	16r	4aa#	=19	A#	M4/4
V7/V	4B#	4dd##	16f##	4aa#	=19	A#	M4/4
V7/V	4B#	4dd##	16dd##	4aa#	=19	A#	M4/4
V7/V	4B#	4dd##	16b#	4aa#	=19	A#	M4/4
V7/V	4B#	4dd##	16r	4aa#	=19	A#	M4/4
V7/V	4B#	4dd##	16f##	4aa#	=19	A#	M4/4
V7/V	4B#	4dd##	16dd##	4aa#	=19	A#	M4/4
V7/V	4B#	4dd##	16b#	4aa#	=19	A#	M4/4
=20	=20	=20	=20	=20	=20	=20	=20
V7/V	4B#	4ff##	4dd##	6..aa#	=20	A#	M4/4
V7/V	2.r	2.r	2.r	6..aa#	=20	A#	M4/4
V7/V	2.r	2.r	2.r	24ddd##	=20	A#	M4/4
V7/V	2.r	2.r	2.r	24fff##	=20	A#	M4/4
V7/V	2.r	2.r	2.r	24aaa#	=20	A#	M4/4
V7/V	2.r	2.r	2.r	24fff##	=20	A#	M4/4
V7/V	2.r	2.r	2.r	24ddd##	=20	A#	M4/4
V7/V	2.r	2.r	2.r	8aa#	=20	A#	M4/4
V7/V	2.r	2.r	2.r	4.r	=20	A#	M4/4
=21	=21	=21	=21	=21	=21	=21	=21
Vb	4G##	2e#	16r	2bbb#	=21	A#	M4/4
Vb	4G##	2e#	16e#	2bbb#	=21	A#	M4/4
Vb	4G##	2e#	16ee#	2bbb#	=21	A#	M4/4
Vb	4G##	2e#	16b#	2bbb#	=21	A#	M4/4
Vb	4G##	2e#	16r	2bbb#	=21	A#	M4/4
Vb	4G##	2e#	16e#	2bbb#	=21	A#	M4/4
Vb	4G##	2e#	16ee#	2bbb#	=21	A#	M4/4
Vb	4G##	2e#	16b#	2bbb#	=21	A#	M4/4
V7b	4G##	2b#	16r	4.d#	=21	A#	M4/4
V7b	4G##	2b#	16e#	4.d#	=21	A#	M4/4
V7b	4G##	2b#	16dd#	4.d#	=21	A#	M4/4
V7b	4G##	2b#	16b#	4.d#	=21	A#	M4/4
V7b	4G##	2b#	16r	4.d#	=21	A#	M4/4
V7b	4G##	2b#	16e#	4.d#	=21	A#	M4/4
V7b	4G##	2b#	16dd#	16e#	=21	A#	M4/4
V7b	4G##	2b#	16b#	16d#	=21	A#	M4/4
=22	=22	=22	=22	=22	=22	=22	=22
I	4A#	4a#	16r	4c##	=22	A#	M4/4
I	4A#	4a#	16e#	4c##	=22	A#	M4/4
I	4A#	4a#	16cc##	4c##	=22	A#	M4/4
I	4A#	4a#	16a#	4c##	=22	A#	M4/4
I	4A#	4a#	16r	[6..ccc##	=22	A#	M4/4
I	4A#	4a#	16e#	[6..ccc##	=22	A#	M4/4
I	4A#	4a#	16cc##	[6..ccc##	=22	A#	M4/4
I	4A#	4a#	16a#	[6..ccc##	=22	A#	M4/4
viiob	4A#	4a#	4f##	[6..ccc##	=22	A#	M4/4
viiob	4A#	4a#	4f##	48ccc##]	=22	A#	M4/4
viiob	4A#	4a#	4f##	16bb##	=22	A#	M4/4
viiob	4A#	4a#	4f##	16ccc##	=22	A#	M4/4
viiob	4A#	4a#	4f##	16bb##	=22	A#	M4/4
viiob	4r	4r	4r	16ccc##	=22	A#	M4/4
viiob	4r	4r	4r	16bb##	=22	A#	M4/4
viiob	4r	4r	4r	16ccc##	=22	A#	M4/4
viiob	4r	4r	4r	16ddd##	=22	A#	M4/4
=23	=23	=23	=23	=23	=23	=23	=23
(Ic)	1r	1r	1r	16eee#	=23	A#	M4/4
(Ic)	1r	1r	1r	16bb##	=23	A#	M4/4
(Ic)	1r	1r	1r	16ccc##	=23	A#	M4/4
(Ic)	1r	1r	1r	16ddd##	=23	A#	M4/4
(Ic)	1r	1r	1r	16eee#	=23	A#	M4/4
(Ic)	1r	1r	1r	16gg##	=23	A#	M4/4
(Ic)	1r	1r	1r	16aa#	=23	A#	M4/4
(Ic)	1r	1r	1r	16bb#	=23	A#	M4/4
(Ic)	1r	1r	1r	16ccc##	=23	A#	M4/4
(Ic)	1r	1r	1r	16ee##	=23	A#	M4/4
(Ic)	1r	1r	1r	16ff##	=23	A#	M4/4
(Ic)	1r	1r	1r	16gg##	=23	A#	M4/4
(Ic)	1r	1r	1r	16aa#	=23	A#	M4/4
(Ic)	1r	1r	1r	16ee##	=23	A#	M4/4
(Ic)	1r	1r	1r	16ff##	=23	A#	M4/4
(Ic)	1r	1r	1r	16a##	=23	A#	M4/4
=24	=24	=24	=24	=24	=24	=24	=24
Vc	4B#	4g##	16r	2b#	=24	A#	M4/4
Vc	4B#	4g##	16g##	2b#	=24	A#	M4/4
Vc	4B#	4g##	16ee#	2b#	=24	A#	M4/4
Vc	4B#	4g##	16b#	2b#	=24	A#	M4/4
Vc	4B#	4ee#	16r	2b#	=24	A#	M4/4
Vc	4B#	4ee#	16g##	2b#	=24	A#	M4/4
Vc	4B#	4ee#	16ee#	2b#	=24	A#	M4/4
Vc	4B#	4ee#	16b#	2b#	=24	A#	M4/4
V7/V	4B#	4f##	16r	2ff##	=24	A#	M4/4
V7/V	4B#	4f##	16f##	2ff##	=24	A#	M4/4
V7/V	4B#	4f##	16dd##	2ff##	=24	A#	M4/4
V7/V	4B#	4f##	16a#	2ff##	=24	A#	M4/4
V7/V	4B#	4dd##	16r	2ff##	=24	A#	M4/4
V7/V	4B#	4dd##	16f##	2ff##	=24	A#	M4/4
V7/V	4B#	4dd##	16dd##	2ff##	=24	A#	M4/4
V7/V	4B#	4dd##	16a#	2ff##	=24	A#	M4/4
=25	=25	=25	=25	=25	=25	=25	=25
V	4E#	4ee#	16r	[2ee#	=25	A#	M4/4
V	4E#	4ee#	16g##	[2ee#	=25	A#	M4/4
V	4E#	4ee#	16ee#	[2ee#	=25	A#	M4/4
V	4E#	4ee#	16b#	[2ee#	=25	A#	M4/4
V7b	4G##	4dd#	16r	[2ee#	=25	A#	M4/4
V7b	4G##	4dd#	16e#	[2ee#	=25	A#	M4/4
V7b	4G##	4dd#	16dd#	[2ee#	=25	A#	M4/4
V7b	4G##	4dd#	16b#	[2ee#	=25	A#	M4/4
I	4A#	4cc##	4cc##	16ee#]	=25	A#	M4/4
I	4A#	4cc##	4cc##	16bb##	=25	A#	M4/4
I	4A#	4cc##	4cc##	16ccc##	=25	A#	M4/4
I	4A#	4cc##	4cc##	16aa#	=25	A#	M4/4
V7/V	4B#	8r	8r	16gg##	=25	A#	M4/4
V7/V	4B#	8r	8r	16ff##	=25	A#	M4/4
V7/V	4B#	8f##	8a#	16ee#	=25	A#	M4/4
V7/V	4B#	8f##	8a#	16dd##	=25	A#	M4/4
=26	=26	=26	=26	=26	=26	=26	=26
V	4E#	4e#	16r	[2ee#	=26	A#	M4/4
V	4E#	4e#	16g##	[2ee#	=26	A#	M4/4
V	4E#	4e#	16ee#	[2ee#	=26	A#	M4/4
V	4E#	4e#	16b#	[2ee#	=26	A#	M4/4
V+b	4G##	4dd#	16r	[2ee#	=26	A#	M4/4
V+b	4G##	4dd#	16e#	[2ee#	=26	A#	M4/4
V+b	4G##	4dd#	16dd#	[2ee#	=26	A#	M4/4
V+b	4G##	4dd#	16b#	[2ee#	=26	A#	M4/4
I	4A#	4cc##	4cc##	16ee#]	=26	A#	M4/4
I	4A#	4cc##	4cc##	16b##	=26	A#	M4/4
I	4A#	4cc##	4cc##	16cc##	=26	A#	M4/4
I	4A#	4cc##	4cc##	16a#	=26	A#	M4/4
V7/V	4B#	8r	8r	16g##	=26	A#	M4/4
V7/V	4B#	8r	8r	16f##	=26	A#	M4/4
V7/V	4B#	8f##	8a#	16e#	=26	A#	M4/4
V7/V	4B#	8f##	8a#	16d##	=26	A#	M4/4
=27	=27	=27	=27	=27	=27	=27	=27
viio/V	[2E#	2f##	2a#	2d##	=27	A#	M4/4
V	4E#]	4e#	4g##	4e#	=27	A#	M4/4
V	4r	4r	4r	4r	=27	A#	M4/4
=28	=28	=28	=28	=28	=28	=28	=28
I	4A#	8r	8r	2.ee#	=28	A#	M4/4
I	4A#	8e#	8cc##	2.ee#	=28	A#	M4/4
I	4c##	8r	8r	2.ee#	=28	A#	M4/4
I	4c##	8e#	8ee#	2.ee#	=28	A#	M4/4
viio	4B#	8r	8r	2.ee#	=28	A#	M4/4
viio	4B#	8g##	8dd#	2.ee#	=28	A#	M4/4
V7	4E#	8r	8r	4gg##	=28	A#	M4/4
V7	4E#	8dd#	8b#	4gg##	=28	A#	M4/4
=29	=29	=29	=29	=29	=29	=29	=29
I	4A#	8r	8r	8aa#	=29	A#	M4/4
I	4A#	8cc##	8cc##	8ee#	=29	A#	M4/4
I	4c##	8r	8r	4.ee#	=29	A#	M4/4
I	4c##	8e#	8ee#	4.ee#	=29	A#	M4/4
viio	4B#	8r	8r	4.ee#	=29	A#	M4/4
viio	4B#	8g##	8dd#	16ddd#	=29	A#	M4/4
viio	4B#	8g##	8dd#	16ccc##	=29	A#	M4/4
V7	4E#	8r	8r	16ddd#	=29	A#	M4/4
V7	4E#	8r	8r	16bb#	=29	A#	M4/4
V7	4E#	8dd#	8b#	16aa#	=29	A#	M4/4
V7	4E#	8dd#	8b#	16gg##	=29	A#	M4/4
=30	=30	=30	=30	=30	=30	=30	=30
I	4A#	4cc##	4e#	16aa#	=30	A#	M4/4
I	4A#	4cc##	4e#	16c##	=30	A#	M4/4
I	4A#	4cc##	4e#	16e#	=30	A#	M4/4
I	4A#	4cc##	4e#	16a#	=30	A#	M4/4
I	2.r	2.r	2.r	16cc##	=30	A#	M4/4
I	2.r	2.r	2.r	16ee#	=30	A#	M4/4
I	2.r	2.r	2.r	16aa#	=30	A#	M4/4
I	2.r	2.r	2.r	16ccc##	=30	A#	M4/4
I	2.r	2.r	2.r	16eee#	=30	A#	M4/4
I	2.r	2.r	2.r	16ccc##	=30	A#	M4/4
I	2.r	2.r	2.r	16bb#	=30	A#	M4/4
I	2.r	2.r	2.r	16aa#	=30	A#	M4/4
I	2.r	2.r	2.r	32gg##	=30	A#	M4/4
I	2.r	2.r	2.r	32aa#	=30	A#	M4/4
I	2.r	2.r	2.r	32gg##	=30	A#	M4/4
I	2.r	2.r	2.r	32aa#	=30	A#	M4/4
I	2.r	2.r	2.r	32gg##	=30	A#	M4/4
I	2.r	2.r	2.r	32aa#	=30	A#	M4/4
I	2.r	2.r	2.r	32gg##	=30	A#	M4/4
I	2.r	2.r	2.r	32aa#	=30	A#	M4/4
=31	=31	=31	=31	=31	=31	=31	=31
IV	4D#	4a#	4dd#	4ff##	=31	A#	M4/4
I	4A#	4a#	4cc##	4ee#	=31	A#	M4/4
I	2r	2r	2r	2r	=31	A#	M4/4
=32	=32	=32	=32	=32	=32	=32	=32
ii	4B#	8r	8r	[3..dd#	=32	A#	M4/4
ii	4B#	8f##	8dd#	[3..dd#	=32	A#	M4/4
IVc	4A#	8r	8r	[3..dd#	=32	A#	M4/4
IVc	4A#	8f##	8dd#	[3..dd#	=32	A#	M4/4
Vb	4G##	8r	8r	[3..dd#	=32	A#	M4/4
Vb	4G##	8r	8r	24dd#]	=32	A#	M4/4
Vb	4G##	8e#	8dd#	16bb#	=32	A#	M4/4
Vb	4G##	8e#	8dd#	16gg##	=32	A#	M4/4
V7	4G##	8r	8r	16ddd#	=32	A#	M4/4
V7	4G##	8r	8r	16bb#	=32	A#	M4/4
V7	4G##	8e#	8dd#	16gg##	=32	A#	M4/4
V7	4G##	8e#	8dd#	16dd#	=32	A#	M4/4
=33	=33	=33	=33	=33	=33	=33	=33
I	4A#	8r	8r	8dd#	=33	A#	M4/4
I	4A#	8e#	8cc##	8cc##	=33	A#	M4/4
iiic	4G##	8r	8r	[6..cc##	=33	A#	M4/4
iiic	4G##	8e#	8cc##	[6..cc##	=33	A#	M4/4
vi	4F##	8r	8r	[6..cc##	=33	A#	M4/4
vi	4F##	8r	8r	48cc##]	=33	A#	M4/4
vi	4F##	8r	8r	32dd#	=33	A#	M4/4
vi	4F##	8r	8r	32ee#	=33	A#	M4/4
vi	4F##	8a#	8cc##	32ff##	=33	A#	M4/4
vi	4F##	8a#	8cc##	32gg##	=33	A#	M4/4
vi	4F##	8a#	8cc##	32aa#	=33	A#	M4/4
vi	4F##	8a#	8cc##	32bb#	=33	A#	M4/4
Ib	4C##	8r	8r	16ccc##	=33	A#	M4/4
Ib	4C##	8r	8r	16aa#	=33	A#	M4/4
Ib	4C##	8e#	8a#	16ee#	=33	A#	M4/4
Ib	4C##	8e#	8a#	16cc##	=33	A#	M4/4
=34	=34	=34	=34	=34	=34	=34	=34
iib	4D#	8r	8r	8b#	=34	A#	M4/4
iib	4D#	8f##	8b#	16cc##	=34	A#	M4/4
iib	4D#	8f##	8b#	16dd#	=34	A#	M4/4
iib	4D#	8r	8r	8dd#	=34	A#	M4/4
iib	4D#	8f##	8b#	16ee#	=34	A#	M4/4
iib	4D#	8f##	8b#	16ff##	=34	A#	M4/4
iib	4D#	8r	8r	8ff##	=34	A#	M4/4
iib	4D#	8f##	8b#	16f##	=34	A#	M4/4
iib	4D#	8f##	8b#	16dd#	=34	A#	M4/4
V7	4E#	8r	8r	8dd#	=34	A#	M4/4
V7	4E#	8B#	8d#	16.b#	=34	A#	M4/4
V7	4E#	8B#	8d#	32g##	=34	A#	M4/4
=35	=35	=35	=35	=35	=35	=35	=35
viio	[4AA#	4B#	4d#	4g##	=35	A#	M4/4
I	8AA#]	8A#	8c##	8a#	=35	A#	M4/4
I	8d#	8f##	4r	3..r	=35	A#	M4/4
Ib	4c##	4e#	4r	3..r	=35	A#	M4/4
Ib	4c##	4e#	8a#	3..r	=35	A#	M4/4
viiob	4B#	4d#	8r	3..r	=35	A#	M4/4
viiob	4B#	4d#	8g##	3..r	=35	A#	M4/4
viiob	4B#	4d#	8g##	24r	=35	A#	M4/4
=36	=36	=36	=36	=36	=36	=36	=36
I	4A#	4c##	16r	2.ee#	=36	A#	M4/4
I	4A#	4c##	16a#	2.ee#	=36	A#	M4/4
I	4A#	4c##	16cc##	2.ee#	=36	A#	M4/4
I	4A#	4c##	16e#	2.ee#	=36	A#	M4/4
Ib	4c##	4a#	16r	2.ee#	=36	A#	M4/4
Ib	4c##	4a#	16e#	2.ee#	=36	A#	M4/4
Ib	4c##	4a#	16ee#	2.ee#	=36	A#	M4/4
Ib	4c##	4a#	16cc##	2.ee#	=36	A#	M4/4
V7b	4B#	4g##	16r	2.ee#	=36	A#	M4/4
V7b	4B#	4g##	16e#	2.ee#	=36	A#	M4/4
V7b	4B#	4g##	16dd#	2.ee#	=36	A#	M4/4
V7b	4B#	4g##	16b#	2.ee#	=36	A#	M4/4
V7	4E#	4dd#	16r	4gg##	=36	A#	M4/4
V7	4E#	4dd#	16b#	4gg##	=36	A#	M4/4
V7	4E#	4dd#	16dd#	4gg##	=36	A#	M4/4
V7	4E#	4dd#	16b#	4gg##	=36	A#	M4/4
=37	=37	=37	=37	=37	=37	=37	=37
I	4A#	4cc##	16r	8aa#	=37	A#	M4/4
I	4A#	4cc##	16e#	8aa#	=37	A#	M4/4
I	4A#	4cc##	16cc##	8ee#	=37	A#	M4/4
I	4A#	4cc##	16a#	8ee#	=37	A#	M4/4
Ib	4c##	4a#	16r	6..ee#	=37	A#	M4/4
Ib	4c##	4a#	16e#	6..ee#	=37	A#	M4/4
Ib	4c##	4a#	16ee#	6..ee#	=37	A#	M4/4
Ib	4c##	4a#	16cc##	6..ee#	=37	A#	M4/4
V7b	4B#	4g##	16r	6..ee#	=37	A#	M4/4
V7b	4B#	4g##	16r	24gg##	=37	A#	M4/4
V7b	4B#	4g##	16e#	24gg##	=37	A#	M4/4
V7b	4B#	4g##	16e#	24bb#	=37	A#	M4/4
V7b	4B#	4g##	16g##	24ddd#	=37	A#	M4/4
V7b	4B#	4g##	16g##	24ccc##	=37	A#	M4/4
V7b	4B#	4g##	16b#	24ccc##	=37	A#	M4/4
V7b	4B#	4g##	16b#	24bb#	=37	A#	M4/4
V7	4E#	4dd#	16r	24fff##	=37	A#	M4/4
V7	4E#	4dd#	16r	24eee#	=37	A#	M4/4
V7	4E#	4dd#	16b#	24eee#	=37	A#	M4/4
V7	4E#	4dd#	16b#	24ddd#	=37	A#	M4/4
V7	4E#	4dd#	16dd#	24bb#	=37	A#	M4/4
V7	4E#	4dd#	16dd#	24aa#	=37	A#	M4/4
V7	4E#	4dd#	16b#	24aa#	=37	A#	M4/4
V7	4E#	4dd#	16b#	24gg##	=37	A#	M4/4
=38	=38	=38	=38	=38	=38	=38	=38
I	4A#	2cc##	16r	2aa#	=38	A#	M4/4
I	4A#	2cc##	16e#	2aa#	=38	A#	M4/4
I	4A#	2cc##	16cc##	2aa#	=38	A#	M4/4
I	4A#	2cc##	16a#	2aa#	=38	A#	M4/4
I	4A#	2cc##	16r	2aa#	=38	A#	M4/4
I	4A#	2cc##	16e#	2aa#	=38	A#	M4/4
I	4A#	2cc##	16cc##	2aa#	=38	A#	M4/4
I	4A#	2cc##	16a#	2aa#	=38	A#	M4/4
V7/IV	4A#	2ee#	16r	2ggg#	=38	A#	M4/4
V7/IV	4A#	2ee#	16e#	2ggg#	=38	A#	M4/4
V7/IV	4A#	2ee#	16cc##	2ggg#	=38	A#	M4/4
V7/IV	4A#	2ee#	16a#	2ggg#	=38	A#	M4/4
V7/IV	4A#	2ee#	16r	2ggg#	=38	A#	M4/4
V7/IV	4A#	2ee#	16e#	2ggg#	=38	A#	M4/4
V7/IV	4A#	2ee#	16cc##	2ggg#	=38	A#	M4/4
V7/IV	4A#	2ee#	16a#	2ggg#	=38	A#	M4/4
=39	=39	=39	=39	=39	=39	=39	=39
IVc	4A#	2dd#	16r	2fff##	=39	A#	M4/4
IVc	4A#	2dd#	16f##	2fff##	=39	A#	M4/4
IVc	4A#	2dd#	16dd#	2fff##	=39	A#	M4/4
IVc	4A#	2dd#	16a#	2fff##	=39	A#	M4/4
IVc	4A#	2dd#	16r	2fff##	=39	A#	M4/4
IVc	4A#	2dd#	16f##	2fff##	=39	A#	M4/4
IVc	4A#	2dd#	16dd#	2fff##	=39	A#	M4/4
IVc	4A#	2dd#	16a#	2fff##	=39	A#	M4/4
viio	4A#	2b#	16r	2ddd#	=39	A#	M4/4
viio	4A#	2b#	16g##	2ddd#	=39	A#	M4/4
viio	4A#	2b#	16dd#	2ddd#	=39	A#	M4/4
viio	4A#	2b#	16b#	2ddd#	=39	A#	M4/4
viio	4A#	2b#	16r	2ddd#	=39	A#	M4/4
viio	4A#	2b#	16g##	2ddd#	=39	A#	M4/4
viio	4A#	2b#	16dd#	2ddd#	=39	A#	M4/4
viio	4A#	2b#	16b#	2ddd#	=39	A#	M4/4
=40	=40	=40	=40	=40	=40	=40	=40
I	4A#	4cc##	4a#	16ccc##	=40	A#	M4/4
I	4A#	4cc##	4a#	16eee#	=40	A#	M4/4
I	4A#	4cc##	4a#	16ddd#	=40	A#	M4/4
I	4A#	4cc##	4a#	16ccc##	=40	A#	M4/4
I	2r	2r	2r	16ddd#	=40	A#	M4/4
I	2r	2r	2r	16eee#	=40	A#	M4/4
I	2r	2r	2r	16fff##	=40	A#	M4/4
I	2r	2r	2r	16ggg##	=40	A#	M4/4
I	2r	2r	2r	16aa#	=40	A#	M4/4
I	2r	2r	2r	16ee#	=40	A#	M4/4
I	2r	2r	2r	16ccc##	=40	A#	M4/4
I	2r	2r	2r	16aa#	=40	A#	M4/4
I	4A#	4e#	8.cc##	8.eee#	=40	A#	M4/4
I	4A#	4e#	16a#	16cc##	=40	A#	M4/4
=41	=41	=41	=41	=41	=41	=41	=41
Ic	4E#	2e#	4a#	4cc##	=41	A#	M4/4
V	4e#	2e#	4g##	4b#	=41	A#	M4/4
V	4E#	2r	16r	2r	=41	A#	M4/4
V	4E#	2r	16g##	2r	=41	A#	M4/4
V	4E#	2r	16b#	2r	=41	A#	M4/4
V	4E#	2r	16e#	2r	=41	A#	M4/4
viiob/V	4F##	2r	16r	2r	=41	A#	M4/4
viiob/V	4F##	2r	16a#	2r	=41	A#	M4/4
viiob/V	4F##	2r	16f##	2r	=41	A#	M4/4
viiob/V	4F##	2r	16d##	2r	=41	A#	M4/4
=42	=42	=42	=42	=42	=42	=42	=42
Vb	4G##	2e#	16r	[2bb#	=42	A#	M4/4
Vb	4G##	2e#	16e#	[2bb#	=42	A#	M4/4
Vb	4G##	2e#	16b#	[2bb#	=42	A#	M4/4
Vb	4G##	2e#	16g##	[2bb#	=42	A#	M4/4
Vb	4GG##	2e#	16b#	[2bb#	=42	A#	M4/4
Vb	4GG##	2e#	16g##	[2bb#	=42	A#	M4/4
Vb	4GG##	2e#	16a#	[2bb#	=42	A#	M4/4
Vb	4GG##	2e#	16f##	[2bb#	=42	A#	M4/4
Vb	4r	4r	16g##	16bb#]	=42	A#	M4/4
Vb	4r	4r	16e#	16gg##	=42	A#	M4/4
Vb	4r	4r	16f##	16aa#	=42	A#	M4/4
Vb	4r	4r	16d##	16ff##	=42	A#	M4/4
Vb	4G##	[4e#	[4e#	16ee#	=42	A#	M4/4
Vb	4G##	[4e#	[4e#	16eee#	=42	A#	M4/4
Vb	4G##	[4e#	[4e#	16ee#	=42	A#	M4/4
Vb	4G##	[4e#	[4e#	16ddd#	=42	A#	M4/4
=43	=43	=43	=43	=43	=43	=43	=43
I	4A#	4e#]	16e#]	8bb##	=43	A#	M4/4
I	4A#	4e#]	16a#	8bb##	=43	A#	M4/4
I	4A#	4e#]	16cc##	8ccc##	=43	A#	M4/4
I	4A#	4e#]	16a#	8ccc##	=43	A#	M4/4
I+	4AA#	4e##	16cc##	[6..ccc##	=43	A#	M4/4
I+	4AA#	4e##	16a#	[6..ccc##	=43	A#	M4/4
I+	4AA#	4e##	16b#	[6..ccc##	=43	A#	M4/4
I+	4AA#	4e##	16g##	[6..ccc##	=43	A#	M4/4
vi	4r	4f##	16a#	[6..ccc##	=43	A#	M4/4
vi	4r	4f##	16a#	48ccc##]	=43	A#	M4/4
vi	4r	4f##	16f##	16aa#	=43	A#	M4/4
vi	4r	4f##	16g##	16aaa#	=43	A#	M4/4
vi	4r	4f##	16e##	16aaa#	=43	A#	M4/4
vib	4A#	4cc##	16f##	16aaa#	=43	A#	M4/4
vib	4A#	4cc##	16f##	16ggg##	=43	A#	M4/4
vib	4A#	4cc##	16cc##	16fff##	=43	A#	M4/4
vib	4A#	4cc##	16f##	16eee#	=43	A#	M4/4
=44	=44	=44	=44	=44	=44	=44	=44
V/V	4B#	4b#	16r	4ddd##	=44	A#	M4/4
V/V	4B#	4b#	16f##	4ddd##	=44	A#	M4/4
V/V	4B#	4b#	16dd##	4ddd##	=44	A#	M4/4
V/V	4B#	4b#	16b#	4ddd##	=44	A#	M4/4
V/V	4B#	4dd##	16r	4bb#	=44	A#	M4/4
V/V	4B#	4dd##	16f##	4bb#	=44	A#	M4/4
V/V	4B#	4dd##	16dd##	4bb#	=44	A#	M4/4
V/V	4B#	4dd##	16b#	4bb#	=44	A#	M4/4
viioD7/ii	4B#	4ee#	16r	4aa##	=44	A#	M4/4
viioD7/ii	4B#	4ee#	16g#	4aa##	=44	A#	M4/4
viioD7/ii	4B#	4ee#	16ee#	4aa##	=44	A#	M4/4
viioD7/ii	4B#	4ee#	16cc##	4aa##	=44	A#	M4/4
viio/IV	4B#	4g#	16r	4ee#	=44	A#	M4/4
viio/IV	4B#	4g#	16g#	4ee#	=44	A#	M4/4
viio/IV	4B#	4g#	16ee#	4ee#	=44	A#	M4/4
viio/IV	4B#	4g#	16cc##	4ee#	=44	A#	M4/4
=45	=45	=45	=45	=45	=45	=45	=45
V/V	4B#	4f##	16r	4dd##	=45	A#	M4/4
V/V	4B#	4f##	16f##	4dd##	=45	A#	M4/4
V/V	4B#	4f##	16dd##	4dd##	=45	A#	M4/4
V/V	4B#	4f##	16b#	4dd##	=45	A#	M4/4
V/V	4B#	4dd##	16r	4bb#	=45	A#	M4/4
V/V	4B#	4dd##	16f##	4bb#	=45	A#	M4/4
V/V	4B#	4dd##	16dd##	4bb#	=45	A#	M4/4
V/V	4B#	4dd##	16b#	4bb#	=45	A#	M4/4
viioD7/ii	4B#	4ee#	16r	8aa##	=45	A#	M4/4
viioD7/ii	4B#	4ee#	16g#	8aa##	=45	A#	M4/4
viioD7/ii	4B#	4ee#	16ee#	8ggg#	=45	A#	M4/4
viioD7/ii	4B#	4ee#	16cc##	8ggg#	=45	A#	M4/4
viio/IV	4B#	4g#	16r	8fff##	=45	A#	M4/4
viio/IV	4B#	4g#	16g#	8fff##	=45	A#	M4/4
viio/IV	4B#	4g#	16ee#	8eee#	=45	A#	M4/4
viio/IV	4B#	4g#	16cc##	8eee#	=45	A#	M4/4
=46	=46	=46	=46	=46	=46	=46	=46
V/V	4B#	4f##	16r	16ddd##	=46	A#	M4/4
V/V	4B#	4f##	16f##	16eee#	=46	A#	M4/4
V/V	4B#	4f##	16dd##	16fff##	=46	A#	M4/4
V/V	4B#	4f##	16b#	16ddd##	=46	A#	M4/4
V7/V	4B#	4dd##	16r	8aa#	=46	A#	M4/4
V7/V	4B#	4dd##	16f##	8aa#	=46	A#	M4/4
V7/V	4B#	4dd##	16dd##	8aa#	=46	A#	M4/4
V7/V	4B#	4dd##	16b#	8aa#	=46	A#	M4/4
V7/V	4B#	4dd##	16r	[12..aa#	=46	A#	M4/4
V7/V	4B#	4dd##	16f##	[12..aa#	=46	A#	M4/4
V7/V	4B#	4dd##	16dd##	[12..aa#	=46	A#	M4/4
V7/V	4B#	4dd##	16dd##	96aa#]	=46	A#	M4/4
V7/V	4B#	4dd##	16dd##	32bb#	=46	A#	M4/4
V7/V	4B#	4dd##	16b#	32ccc##	=46	A#	M4/4
V7/V	4B#	4dd##	16b#	32bb#	=46	A#	M4/4
V7/V	4B#	4dd##	16r	8aa#	=46	A#	M4/4
V7/V	4B#	4dd##	16f##	8aa#	=46	A#	M4/4
V7/V	4B#	4dd##	16dd##	8aa#	=46	A#	M4/4
V7/V	4B#	4dd##	16b#	8aa#	=46	A#	M4/4
=47	=47	=47	=47	=47	=47	=47	=47
V7/V	4B#	4ff##	4dd##	2.aaa#	=47	A#	M4/4
V7/V	2.r	2.r	2.r	2.aaa#	=47	A#	M4/4
V7/V	2.r	2.r	2.r	4aa#	=47	A#	M4/4
=48	=48	=48	=48	=48	=48	=48	=48
Vb	4G##	2e#	16r	2bbb#	=48	A#	M4/4
Vb	4G##	2e#	16e#	2bbb#	=48	A#	M4/4
Vb	4G##	2e#	16ee#	2bbb#	=48	A#	M4/4
Vb	4G##	2e#	16b#	2bbb#	=48	A#	M4/4
Vb	4G##	2e#	16r	2bbb#	=48	A#	M4/4
Vb	4G##	2e#	16e#	2bbb#	=48	A#	M4/4
Vb	4G##	2e#	16ee#	2bbb#	=48	A#	M4/4
Vb	4G##	2e#	16b#	2bbb#	=48	A#	M4/4
V7b	4G##	2b#	16r	4.d#	=48	A#	M4/4
V7b	4G##	2b#	16e#	4.d#	=48	A#	M4/4
V7b	4G##	2b#	16dd#	4.d#	=48	A#	M4/4
V7b	4G##	2b#	16b#	4.d#	=48	A#	M4/4
V7b	4G##	2b#	16r	4.d#	=48	A#	M4/4
V7b	4G##	2b#	16e#	4.d#	=48	A#	M4/4
V7b	4G##	2b#	16dd#	16e#	=48	A#	M4/4
V7b	4G##	2b#	16b#	16d#	=48	A#	M4/4
=49	=49	=49	=49	=49	=49	=49	=49
I	4A#	4a#	16r	4c##	=49	A#	M4/4
I	4A#	4a#	16e#	4c##	=49	A#	M4/4
I	4A#	4a#	16cc##	4c##	=49	A#	M4/4
I	4A#	4a#	16a#	4c##	=49	A#	M4/4
I	4A#	4a#	16r	6..ccc##	=49	A#	M4/4
I	4A#	4a#	16e#	6..ccc##	=49	A#	M4/4
I	4A#	4a#	16cc##	6..ccc##	=49	A#	M4/4
I	4A#	4a#	16a#	6..ccc##	=49	A#	M4/4
viioD7d/iii	4A#	4a#	4f##	6..ccc##	=49	A#	M4/4
viioD7d/iii	4A#	4a#	4f##	24ddd##	=49	A#	M4/4
viioD7d/iii	4A#	4a#	4f##	24bb##	=49	A#	M4/4
viioD7d/iii	4A#	4a#	4f##	24ccc##	=49	A#	M4/4
viioD7d/iii	4A#	4a#	4f##	24ddd##	=49	A#	M4/4
viioD7d/iii	4A#	4a#	4f##	24bb##	=49	A#	M4/4
viioD7d/iii	4r	4r	4r	24ccc##	=49	A#	M4/4
viioD7d/iii	4r	4r	4r	24ddd##	=49	A#	M4/4
viioD7d/iii	4r	4r	4r	24bb##	=49	A#	M4/4
viioD7d/iii	4r	4r	4r	24ccc##	=49	A#	M4/4
viioD7d/iii	4r	4r	4r	24eee#	=49	A#	M4/4
viioD7d/iii	4r	4r	4r	24ddd##	=49	A#	M4/4
=50	=50	=50	=50	=50	=50	=50	=50
(I)	1r	1r	1r	24eee#	=50	A#	M4/4
(I)	1r	1r	1r	24gg##	=50	A#	M4/4
(I)	1r	1r	1r	24aa#	=50	A#	M4/4
(I)	1r	1r	1r	24bb#	=50	A#	M4/4
(I)	1r	1r	1r	24ccc##	=50	A#	M4/4
(I)	1r	1r	1r	24ddd##	=50	A#	M4/4
(I)	1r	1r	1r	24eee#	=50	A#	M4/4
(I)	1r	1r	1r	24ee#	=50	A#	M4/4
(I)	1r	1r	1r	24ff##	=50	A#	M4/4
(I)	1r	1r	1r	24gg##	=50	A#	M4/4
(I)	1r	1r	1r	24aa#	=50	A#	M4/4
(I)	1r	1r	1r	24bb#	=50	A#	M4/4
(I)	1r	1r	1r	24ccc##	=50	A#	M4/4
(I)	1r	1r	1r	24cc##	=50	A#	M4/4
(I)	1r	1r	1r	24dd##	=50	A#	M4/4
(I)	1r	1r	1r	24ee#	=50	A#	M4/4
(I)	1r	1r	1r	24ff##	=50	A#	M4/4
(I)	1r	1r	1r	24gg##	=50	A#	M4/4
(I)	1r	1r	1r	24aa#	=50	A#	M4/4
(I)	1r	1r	1r	24gg##	=50	A#	M4/4
(I)	1r	1r	1r	24ff##	=50	A#	M4/4
(I)	1r	1r	1r	24ee#	=50	A#	M4/4
(I)	1r	1r	1r	24dd##	=50	A#	M4/4
(I)	1r	1r	1r	24cc##	=50	A#	M4/4
=51	=51	=51	=51	=51	=51	=51	=51
Vc	4B#	2g##	16r	16b#	=51	A#	M4/4
Vc	4B#	2g##	16g##	16ee#	=51	A#	M4/4
Vc	4B#	2g##	16ee#	16gg##	=51	A#	M4/4
Vc	4B#	2g##	16b#	16bb#	=51	A#	M4/4
Vc	4B#	2g##	16r	16eee#	=51	A#	M4/4
Vc	4B#	2g##	16g##	16ggg##	=51	A#	M4/4
Vc	4B#	2g##	16ee#	16bbb#	=51	A#	M4/4
Vc	4B#	2g##	16b#	16r	=51	A#	M4/4
V7/V	4B#	4a#	16r	2ff##	=51	A#	M4/4
V7/V	4B#	4a#	16f##	2ff##	=51	A#	M4/4
V7/V	4B#	4a#	16dd##	2ff##	=51	A#	M4/4
V7/V	4B#	4a#	16a#	2ff##	=51	A#	M4/4
V7/V	4B#	4d##	16r	2ff##	=51	A#	M4/4
V7/V	4B#	4d##	16f##	2ff##	=51	A#	M4/4
V7/V	4B#	4d##	16dd##	2ff##	=51	A#	M4/4
V7/V	4B#	4d##	16a#	2ff##	=51	A#	M4/4
=52	=52	=52	=52	=52	=52	=52	=52
V	4E#	4e#	16r	2.bb#	=52	A#	M4/4
V	4E#	4e#	16g##	2.bb#	=52	A#	M4/4
V	4E#	4e#	16ee#	2.bb#	=52	A#	M4/4
V	4E#	4e#	16b#	2.bb#	=52	A#	M4/4
Vb	4G##	4e#	16r	2.bb#	=52	A#	M4/4
Vb	4G##	4e#	16b#	2.bb#	=52	A#	M4/4
Vb	4G##	4e#	16bb#	2.bb#	=52	A#	M4/4
Vb	4G##	4e#	16gg##	2.bb#	=52	A#	M4/4
V7c/V	4F##	4d##	16r	2.bb#	=52	A#	M4/4
V7c/V	4F##	4d##	16b#	2.bb#	=52	A#	M4/4
V7c/V	4F##	4d##	16aa#	2.bb#	=52	A#	M4/4
V7c/V	4F##	4d##	16ff##	2.bb#	=52	A#	M4/4
V7c/V	4BB#	4a#	16r	4ddd##	=52	A#	M4/4
V7c/V	4BB#	4a#	16b#	4ddd##	=52	A#	M4/4
V7c/V	4BB#	4a#	16aa#	4ddd##	=52	A#	M4/4
V7c/V	4BB#	4a#	16ff##	4ddd##	=52	A#	M4/4
=53	=53	=53	=53	=53	=53	=53	=53
V	4E#	4g##	16r	8eee#	=53	A#	M4/4
V	4E#	4g##	16b#	8eee#	=53	A#	M4/4
V	4E#	4g##	16gg##	8bb#	=53	A#	M4/4
V	4E#	4g##	16ee#	8bb#	=53	A#	M4/4
Vb	4G##	4e#	16r	2bb#	=53	A#	M4/4
Vb	4G##	4e#	16b#	2bb#	=53	A#	M4/4
Vb	4G##	4e#	16bb#	2bb#	=53	A#	M4/4
Vb	4G##	4e#	16gg##	2bb#	=53	A#	M4/4
V7c/V	4F##	4d##	16r	2bb#	=53	A#	M4/4
V7c/V	4F##	4d##	16b#	2bb#	=53	A#	M4/4
V7c/V	4F##	4d##	16aa#	2bb#	=53	A#	M4/4
V7c/V	4F##	4d##	16ff##	2bb#	=53	A#	M4/4
V7c/V	4B#	4a#	16r	4ddd##	=53	A#	M4/4
V7c/V	4B#	4a#	16ff##	4ddd##	=53	A#	M4/4
V7c/V	4B#	4a#	16aa#	4ddd##	=53	A#	M4/4
V7c/V	4B#	4a#	16ff##	4ddd##	=53	A#	M4/4
=54	=54	=54	=54	=54	=54	=54	=54
v	4e#	4g#	16r	[3..eee#	=54	A#	M4/4
v	4e#	4g#	16b#	[3..eee#	=54	A#	M4/4
v	4e#	4g#	16gg#	[3..eee#	=54	A#	M4/4
v	4e#	4g#	16ee#	[3..eee#	=54	A#	M4/4
v	4e#	4b#	16r	[3..eee#	=54	A#	M4/4
v	4e#	4b#	16b#	[3..eee#	=54	A#	M4/4
v	4e#	4b#	16gg#	[3..eee#	=54	A#	M4/4
v	4e#	4b#	16ee#	[3..eee#	=54	A#	M4/4
v	4e#	2gg#	16r	[3..eee#	=54	A#	M4/4
v	4e#	2gg#	16b#	[3..eee#	=54	A#	M4/4
v	4e#	2gg#	16b#	24eee#]	=54	A#	M4/4
v	4e#	2gg#	16gg#	8ddd#	=54	A#	M4/4
v	4e#	2gg#	16ee#	8ddd#	=54	A#	M4/4
v	4e#	2gg#	16r	8ccc##	=54	A#	M4/4
v	4e#	2gg#	16b#	8ccc##	=54	A#	M4/4
v	4e#	2gg#	16gg#	8bb#	=54	A#	M4/4
v	4e#	2gg#	16ee#	8bb#	=54	A#	M4/4
=55	=55	=55	=55	=55	=55	=55	=55
V7d/ii	4e#	4ff##	16r	1aa##	=55	A#	M4/4
V7d/ii	4e#	4ff##	16cc##	1aa##	=55	A#	M4/4
V7d/ii	4e#	4ff##	16ff##	1aa##	=55	A#	M4/4
V7d/ii	4e#	4ff##	16f##	1aa##	=55	A#	M4/4
V7d/ii	4e#	4cc##	16r	1aa##	=55	A#	M4/4
V7d/ii	4e#	4cc##	16cc##	1aa##	=55	A#	M4/4
V7d/ii	4e#	4cc##	16ff##	1aa##	=55	A#	M4/4
V7d/ii	4e#	4cc##	16f##	1aa##	=55	A#	M4/4
V7d/ii	4e#	4a##	16r	1aa##	=55	A#	M4/4
V7d/ii	4e#	4a##	16cc##	1aa##	=55	A#	M4/4
V7d/ii	4e#	4a##	16ff##	1aa##	=55	A#	M4/4
V7d/ii	4e#	4a##	16f##	1aa##	=55	A#	M4/4
V7d/ii	4e#	4f##	16r	1aa##	=55	A#	M4/4
V7d/ii	4e#	4f##	16cc##	1aa##	=55	A#	M4/4
V7d/ii	4e#	4f##	16ff##	1aa##	=55	A#	M4/4
V7d/ii	4e#	4f##	16f##	1aa##	=55	A#	M4/4
=56	=56	=56	=56	=56	=56	=56	=56
iib	4d#	4ff##	16r	1bb#	=56	A#	M4/4
iib	4d#	4ff##	16f##	1bb#	=56	A#	M4/4
iib	4d#	4ff##	16ff##	1bb#	=56	A#	M4/4
iib	4d#	4ff##	16dd#	1bb#	=56	A#	M4/4
iib	4d#	4dd#	16r	1bb#	=56	A#	M4/4
iib	4d#	4dd#	16f##	1bb#	=56	A#	M4/4
iib	4d#	4dd#	16ff##	1bb#	=56	A#	M4/4
iib	4d#	4dd#	16dd#	1bb#	=56	A#	M4/4
iib	4d#	4b#	16r	1bb#	=56	A#	M4/4
iib	4d#	4b#	16f##	1bb#	=56	A#	M4/4
iib	4d#	4b#	16ff##	1bb#	=56	A#	M4/4
iib	4d#	4b#	16dd#	1bb#	=56	A#	M4/4
iib	4d#	4f##	16r	1bb#	=56	A#	M4/4
iib	4d#	4f##	16f##	1bb#	=56	A#	M4/4
iib	4d#	4f##	16ff##	1bb#	=56	A#	M4/4
iib	4d#	4f##	16dd#	1bb#	=56	A#	M4/4
=57	=57	=57	=57	=57	=57	=57	=57
V7/vii	4d#	4aa#	16r	1ccc#	=57	A#	M4/4
V7/vii	4d#	4aa#	16a#	1ccc#	=57	A#	M4/4
V7/vii	4d#	4aa#	16ff##	1ccc#	=57	A#	M4/4
V7/vii	4d#	4aa#	16cc#	1ccc#	=57	A#	M4/4
V7/vii	4d#	4ff##	16r	1ccc#	=57	A#	M4/4
V7/vii	4d#	4ff##	16a#	1ccc#	=57	A#	M4/4
V7/vii	4d#	4ff##	16ff##	1ccc#	=57	A#	M4/4
V7/vii	4d#	4ff##	16cc#	1ccc#	=57	A#	M4/4
V7/vii	4d#	4cc#	16r	1ccc#	=57	A#	M4/4
V7/vii	4d#	4cc#	16a#	1ccc#	=57	A#	M4/4
V7/vii	4d#	4cc#	16ff##	1ccc#	=57	A#	M4/4
V7/vii	4d#	4cc#	16cc#	1ccc#	=57	A#	M4/4
V7/vii	4d#	4a#	16r	1ccc#	=57	A#	M4/4
V7/vii	4d#	4a#	16a#	1ccc#	=57	A#	M4/4
V7/vii	4d#	4a#	16ff##	1ccc#	=57	A#	M4/4
V7/vii	4d#	4a#	16cc#	1ccc#	=57	A#	M4/4
=58	=58	=58	=58	=58	=58	=58	=58
vic	4c##	4aa#	16r	[2ccc##	=58	A#	M4/4
vic	4c##	4aa#	16a#	[2ccc##	=58	A#	M4/4
vic	4c##	4aa#	16ff##	[2ccc##	=58	A#	M4/4
vic	4c##	4aa#	16cc##	[2ccc##	=58	A#	M4/4
vic	4c##	4ff##	16r	[2ccc##	=58	A#	M4/4
vic	4c##	4ff##	16a#	[2ccc##	=58	A#	M4/4
vic	4c##	4ff##	16ff##	[2ccc##	=58	A#	M4/4
vic	4c##	4ff##	16cc##	[2ccc##	=58	A#	M4/4
vic	4c##	4cc##	16r	4ccc##]	=58	A#	M4/4
vic	4c##	4cc##	16a#	4ccc##]	=58	A#	M4/4
vic	4c##	4cc##	16ff##	4ccc##]	=58	A#	M4/4
vic	4c##	4cc##	16cc##	4ccc##]	=58	A#	M4/4
vic	4c##	4a#	16r	16bb#	=58	A#	M4/4
vic	4c##	4a#	16a#	16aa#	=58	A#	M4/4
vic	4c##	4a#	16ff##	16gg##	=58	A#	M4/4
vic	4c##	4a#	16cc##	16ff##	=58	A#	M4/4
=59	=59	=59	=59	=59	=59	=59	=59
V/vi	4c##	4cc##	16r	16ff##	=59	A#	M4/4
V/vi	4c##	4cc##	16g##	16ee##	=59	A#	M4/4
V/vi	4c##	4cc##	16ee##	16aa#	=59	A#	M4/4
V/vi	4c##	4cc##	16cc##	16gg##	=59	A#	M4/4
V/vi	4c##	2e##	16r	2.gg##	=59	A#	M4/4
V/vi	4c##	2e##	16g##	2.gg##	=59	A#	M4/4
V/vi	4c##	2e##	16ee##	2.gg##	=59	A#	M4/4
V/vi	4c##	2e##	16cc##	2.gg##	=59	A#	M4/4
V/vi	4c##	2e##	16r	2.gg##	=59	A#	M4/4
V/vi	4c##	2e##	16g##	2.gg##	=59	A#	M4/4
V/vi	4c##	2e##	16ee##	2.gg##	=59	A#	M4/4
V/vi	4c##	2e##	16cc##	2.gg##	=59	A#	M4/4
V7d/vi	4B#	4g##	16r	2.gg##	=59	A#	M4/4
V7d/vi	4B#	4g##	16g##	2.gg##	=59	A#	M4/4
V7d/vi	4B#	4g##	16ee##	2.gg##	=59	A#	M4/4
V7d/vi	4B#	4g##	16cc##	2.gg##	=59	A#	M4/4
=60	=60	=60	=60	=60	=60	=60	=60
vib	4A#	4f##	16r	2.ccc##	=60	A#	M4/4
vib	4A#	4f##	16f##	2.ccc##	=60	A#	M4/4
vib	4A#	4f##	16ff##	2.ccc##	=60	A#	M4/4
vib	4A#	4f##	16cc##	2.ccc##	=60	A#	M4/4
vib	4A#	4cc##	16r	2.ccc##	=60	A#	M4/4
vib	4A#	4cc##	16f##	2.ccc##	=60	A#	M4/4
vib	4A#	4cc##	16ff##	2.ccc##	=60	A#	M4/4
vib	4A#	4cc##	16cc##	2.ccc##	=60	A#	M4/4
V7b/ii	4A##	[2ff##	16r	2.ccc##	=60	A#	M4/4
V7b/ii	4A##	[2ff##	16f##	2.ccc##	=60	A#	M4/4
V7b/ii	4A##	[2ff##	16ee#	2.ccc##	=60	A#	M4/4
V7b/ii	4A##	[2ff##	16cc##	2.ccc##	=60	A#	M4/4
V7b/ii	4A##	[2ff##	16r	8ff##	=60	A#	M4/4
V7b/ii	4A##	[2ff##	16cc##	8ff##	=60	A#	M4/4
V7b/ii	4A##	[2ff##	16ee#	8eee#	=60	A#	M4/4
V7b/ii	4A##	[2ff##	16cc##	8eee#	=60	A#	M4/4
=61	=61	=61	=61	=61	=61	=61	=61
ii	4B#	4ff##]	16r	8ddd#	=61	A#	M4/4
ii	4B#	4ff##]	16f##	8ddd#	=61	A#	M4/4
ii	4B#	4ff##]	16dd#	16ccc##	=61	A#	M4/4
ii	4B#	4ff##]	16b#	16bb#	=61	A#	M4/4
ii	4B#	4dd#	16r	2bb#	=61	A#	M4/4
ii	4B#	4dd#	16f##	2bb#	=61	A#	M4/4
ii	4B#	4dd#	16dd#	2bb#	=61	A#	M4/4
ii	4B#	4dd#	16b#	2bb#	=61	A#	M4/4
V7b	4G##	[2ee#	16r	2bb#	=61	A#	M4/4
V7b	4G##	[2ee#	16e#	2bb#	=61	A#	M4/4
V7b	4G##	[2ee#	16dd#	2bb#	=61	A#	M4/4
V7b	4G##	[2ee#	16b#	2bb#	=61	A#	M4/4
V7b	4G##	[2ee#	16r	8ee#	=61	A#	M4/4
V7b	4G##	[2ee#	16b#	8ee#	=61	A#	M4/4
V7b	4G##	[2ee#	16dd#	8ddd#	=61	A#	M4/4
V7b	4G##	[2ee#	16b#	8ddd#	=61	A#	M4/4
=62	=62	=62	=62	=62	=62	=62	=62
I	4A#	4ee#]	16r	8ccc##	=62	A#	M4/4
I	4A#	4ee#]	16e#	8ccc##	=62	A#	M4/4
I	4A#	4ee#]	16cc##	16bb#	=62	A#	M4/4
I	4A#	4ee#]	16a#	16aa#	=62	A#	M4/4
I	4A#	4cc##	16r	2aa#	=62	A#	M4/4
I	4A#	4cc##	16e#	2aa#	=62	A#	M4/4
I	4A#	4cc##	16cc##	2aa#	=62	A#	M4/4
I	4A#	4cc##	16a#	2aa#	=62	A#	M4/4
V7b/IV	4c##	4a#	16r	2aa#	=62	A#	M4/4
V7b/IV	4c##	4a#	16a#	2aa#	=62	A#	M4/4
V7b/IV	4c##	4a#	16ee#	2aa#	=62	A#	M4/4
V7b/IV	4c##	4a#	16a#	2aa#	=62	A#	M4/4
V7b/IV	4c##	4e#	16r	4gg#	=62	A#	M4/4
V7b/IV	4c##	4e#	16a#	4gg#	=62	A#	M4/4
V7b/IV	4c##	4e#	16ee#	4gg#	=62	A#	M4/4
V7b/IV	4c##	4e#	16a#	4gg#	=62	A#	M4/4
=63	=63	=63	=63	=63	=63	=63	=63
IV	4d#	2d#	16r	4ff##	=63	A#	M4/4
IV	4d#	2d#	16a#	4ff##	=63	A#	M4/4
IV	4d#	2d#	16ff##	4ff##	=63	A#	M4/4
IV	4d#	2d#	16dd#	4ff##	=63	A#	M4/4
IV	4d#	2d#	16r	2fff##	=63	A#	M4/4
IV	4d#	2d#	16a#	2fff##	=63	A#	M4/4
IV	4d#	2d#	16ff##	2fff##	=63	A#	M4/4
IV	4d#	2d#	16dd#	2fff##	=63	A#	M4/4
V7b/V	4d##	2b#	16r	2fff##	=63	A#	M4/4
V7b/V	4d##	2b#	16a#	2fff##	=63	A#	M4/4
V7b/V	4d##	2b#	16ff##	2fff##	=63	A#	M4/4
V7b/V	4d##	2b#	16dd##	2fff##	=63	A#	M4/4
V7b/V	4d##	2b#	16r	4aa#	=63	A#	M4/4
V7b/V	4d##	2b#	16a#	4aa#	=63	A#	M4/4
V7b/V	4d##	2b#	16ff##	4aa#	=63	A#	M4/4
V7b/V	4d##	2b#	16dd##	4aa#	=63	A#	M4/4
=64	=64	=64	=64	=64	=64	=64	=64
V	4e#	2.b#	16r	8gg##	=64	A#	M4/4
V	4e#	2.b#	16g##	8gg##	=64	A#	M4/4
V	4e#	2.b#	16ee#	16ff##	=64	A#	M4/4
V	4e#	2.b#	16b#	16ee#	=64	A#	M4/4
V	4e#	2.b#	16r	4ee#	=64	A#	M4/4
V	4e#	2.b#	16g##	4ee#	=64	A#	M4/4
V	4e#	2.b#	16ee#	4ee#	=64	A#	M4/4
V	4e#	2.b#	16b#	4ee#	=64	A#	M4/4
V7d	4d#	2.b#	16r	2r	=64	A#	M4/4
V7d	4d#	2.b#	16g##	2r	=64	A#	M4/4
V7d	4d#	2.b#	16ee#	2r	=64	A#	M4/4
V7d	4d#	2.b#	16b#	2r	=64	A#	M4/4
V7d	4d#	8cc##	16r	2r	=64	A#	M4/4
V7d	4d#	8cc##	16g##	2r	=64	A#	M4/4
V7d	4d#	8dd#	16ee#	2r	=64	A#	M4/4
V7d	4d#	8dd#	16b#	2r	=64	A#	M4/4
=65	=65	=65	=65	=65	=65	=65	=65
Ib	4c##	4ee#	16r	2.ee#	=65	A#	M4/4
Ib	4c##	4ee#	16a#	2.ee#	=65	A#	M4/4
Ib	4c##	4ee#	16ee#	2.ee#	=65	A#	M4/4
Ib	4c##	4ee#	16cc##	2.ee#	=65	A#	M4/4
Ib	4C##	2A#	16ee#	2.ee#	=65	A#	M4/4
Ib	4C##	2A#	16cc##	2.ee#	=65	A#	M4/4
Ib	4C##	2A#	16dd#	2.ee#	=65	A#	M4/4
Ib	4C##	2A#	16b#	2.ee#	=65	A#	M4/4
I+b	4C##	2A#	16cc##	2.ee#	=65	A#	M4/4
I+b	4C##	2A#	16a#	2.ee#	=65	A#	M4/4
I+b	4C##	2A#	16b#	2.ee#	=65	A#	M4/4
I+b	4C##	2A#	16g##	2.ee#	=65	A#	M4/4
I+b	4C##	[4A#	16a#	4ee##	=65	A#	M4/4
I+b	4C##	[4A#	16b#	4ee##	=65	A#	M4/4
I+b	4C##	[4A#	16a#	4ee##	=65	A#	M4/4
I+b	4C##	[4A#	16g#	4ee##	=65	A#	M4/4
=66	=66	=66	=66	=66	=66	=66	=66
IV	2D#	4A#]	16f##	2.ff##	=66	A#	M4/4
IV	2D#	4A#]	16dd#	2.ff##	=66	A#	M4/4
IV	2D#	4A#]	16ff##	2.ff##	=66	A#	M4/4
IV	2D#	4A#]	16dd#	2.ff##	=66	A#	M4/4
IV+	2D#	4A##	16ff##	2.ff##	=66	A#	M4/4
IV+	2D#	4A##	16dd#	2.ff##	=66	A#	M4/4
IV+	2D#	4A##	16ee#	2.ff##	=66	A#	M4/4
IV+	2D#	4A##	16cc##	2.ff##	=66	A#	M4/4
ii	4r	[2B#	16dd#	2.ff##	=66	A#	M4/4
ii	4r	[2B#	16b#	2.ff##	=66	A#	M4/4
ii	4r	[2B#	16cc##	2.ff##	=66	A#	M4/4
ii	4r	[2B#	16a##	2.ff##	=66	A#	M4/4
	A#	M4/4
	A#	M4/4
	A#	M4/4
	A#	M4/4
	=67	=67
	A#	M4/4
	A#	M4/4
	A#	M4/4
	A#	M4/4
	A#	M4/4
	A#	M4/4
	A#	M4/4
	A#	M4/4
	A#	M4/4
	A#	M4/4
	A#	M4/4
	A#	M4/4
	A#	M4/4
	A#	M4/4
	A#	M4/4
	A#	M4/4
	=68	=68
	A#	M4/4
	A#	M4/4
	A#	M4/4
	A#	M4/4
	A#	M4/4
	A#	M4/4
	A#	M4/4
	A#	M4/4
	A#	M4/4
	A#	M4/4
	A#	M4/4
	A#	M4/4
	A#	M4/4
	A#	M4/4
	A#	M4/4
	A#	M4/4
	=69	=69
	A#	M4/4
	A#	M4/4
	A#	M4/4
	A#	M4/4
	A#	M4/4
	A#	M4/4
	A#	M4/4
	A#	M4/4
	A#	M4/4
	A#	M4/4
	A#	M4/4
	A#	M4/4
	A#	M4/4
	A#	M4/4
	A#	M4/4
	A#	M4/4
	=70	=70
	A#	M4/4
	A#	M4/4
	A#	M4/4
	A#	M4/4
	A#	M4/4
	A#	M4/4
	A#	M4/4
	A#	M4/4
	A#	M4/4
	A#	M4/4
	A#	M4/4
	A#	M4/4
	A#	M4/4
	A#	M4/4
	A#	M4/4
	A#	M4/4
	=71	=71
	A#	M4/4
	A#	M4/4
	A#	M4/4
	A#	M4/4
	A#	M4/4
	A#	M4/4
	A#	M4/4
	A#	M4/4
	A#	M4/4
	A#	M4/4
	A#	M4/4
	A#	M4/4
	A#	M4/4
	A#	M4/4
	A#	M4/4
	A#	M4/4
	=72	=72
	A#	M4/4
	A#	M4/4
	A#	M4/4
	A#	M4/4
	A#	M4/4
	A#	M4/4
	=73	=73
	A#	M4/4
	A#	M4/4
	A#	M4/4
	A#	M4/4
	A#	M4/4
	A#	M4/4
	A#	M4/4
	A#	M4/4
	A#	M4/4
	A#	M4/4
	A#	M4/4
	A#	M4/4
	A#	M4/4
	A#	M4/4
	A#	M4/4
	A#	M4/4
	=74	=74
	A#	M4/4
	A#	M4/4
	A#	M4/4
	A#	M4/4
	A#	M4/4
	A#	M4/4
	A#	M4/4
	A#	M4/4
	A#	M4/4
	A#	M4/4
	A#	M4/4
	A#	M4/4
	A#	M4/4
	A#	M4/4
	A#	M4/4
	A#	M4/4
	=75	=75
	A#	M4/4
	A#	M4/4
	A#	M4/4
	A#	M4/4
	A#	M4/4
	A#	M4/4
	A#	M4/4
	A#	M4/4
	A#	M4/4
	A#	M4/4
	A#	M4/4
	A#	M4/4
	A#	M4/4
	A#	M4/4
	A#	M4/4
	A#	M4/4
	A#	M4/4
	=76	=76
	A#	M4/4
	A#	M4/4
	A#	M4/4
	A#	M4/4
	A#	M4/4
	A#	M4/4
	A#	M4/4
	A#	M4/4
	A#	M4/4
	A#	M4/4
	A#	M4/4
	A#	M4/4
	A#	M4/4
	A#	M4/4
	A#	M4/4
	A#	M4/4
	=77	=77
	A#	M4/4
	A#	M4/4
	A#	M4/4
	A#	M4/4
	A#	M4/4
	A#	M4/4
	A#	M4/4
	A#	M4/4
	A#	M4/4
	A#	M4/4
	A#	M4/4
	A#	M4/4
	A#	M4/4
	A#	M4/4
	A#	M4/4
	A#	M4/4
	=78	=78
	A#	M4/4
	A#	M4/4
	A#	M4/4
	A#	M4/4
	A#	M4/4
	A#	M4/4
	A#	M4/4
	A#	M4/4
	A#	M4/4
	A#	M4/4
	A#	M4/4
	A#	M4/4
	A#	M4/4
	A#	M4/4
	A#	M4/4
	A#	M4/4
	=79	=79
	A#	M4/4
	A#	M4/4
	A#	M4/4
	==	==
	*-	*-
	!!!RWG1: This file contains only pitch and duration data.	!!!RWG1: This file contains only pitch and duration data.
	!!!RWG2: Transposing instruments are not transposed.	!!!RWG2: Transposing instruments are not transposed.
	!!!RWG3: Spines may have incompatible meters.	!!!RWG3: Spines may have incompatible meters.
	!!!RWG4: Durations of rests and tied notes may be interpreted.	!!!RWG4: Durations of rests and tied notes may be interpreted.
	!!!RWG: Key is interpreted using the Humdrum key tool.	!!!RWG: Key is interpreted using the Humdrum key tool.
	!!!GTL: 6 Divertimentos ("Sun")	!!!GTL: 6 Divertimentos ("Sun")
	!!!AFT: stage1	!!!AFT: stage1
	!!!END: 1997/04/15	!!!END: 1997/04/15
	!!!KEY: 1906484277	!!!KEY: 1906484277
	!!!EMD: Converted from MuseData to Humdrum Dec 16, 2000, by Andreas Kornstaedt using muse2kern.	!!!EMD: Converted from MuseData to Humdrum Dec 16, 2000, by Andreas Kornstaedt using muse2kern.
	!!!EMD: Manual editing by Craig Sapp, Nov 2001	!!!EMD: Manual editing by Craig Sapp, Nov 2001
	!!!EMD: Changing fourth beat of mm.5 to match the Altmann Edition, Nestor Napoles, June 2017	!!!EMD: Changing fourth beat of mm.5 to match the Altmann Edition, Nestor Napoles, June 2017
